X:1
T:St. John (Parish), 66.66.88
T:Parish Choir, 1851
T:St. John (Parish), 66.66.88
T:Public Domain
C:Parish Choir, 1851
Z:Public Domain
%%score ( 1 2 ) ( 3 4 )
L:1/8
M:4/4
K:D
V:1 treble 
V:2 treble 
V:3 bass 
V:4 bass 
V:1
 D2 | [DF]2 [DF]2 [EA]2 [EA]2 | [Dd]6 [Dd]2 | [Ec]2 [FB]2 [EA]2 [E^G]2 | [EA]6 [FA]2 | %5
 [GB]2 [Gc]2 [Ad]2 [GB]2 | [FA]6 [DA]2 | [DG]2 [DF]2 [DE]2 [CE]2 | D6 [A,D]2 | %9
 [B,D]2 [CE]2 [DF]2 D2 | [DF]2 [DG]2 [EA]2 [FA]2 | [GB]2 [Gc]2 [Ad]2 [Fd]2 | [Ge]4 [Ec]4 | [Fd]6 |] %14
V:2
 D2 | x8 | x8 | x8 | x8 | x8 | x8 | x8 | D6 x2 | x8 | x8 | x8 | x8 | x6 |] %14
V:3
 [D,F,]2 | [D,A,]2 [D,A,]2 [C,A,]2 [C,A,]2 | [B,,F,]6 [B,,F,]2 | [C,A,]2 [D,D]2 [E,C]2 [E,B,]2 | %4
 [A,,C]6 [D,D]2 | [G,D]2 [E,E]2 [F,D]2 [G,D]2 | [D,D]6 [D,F,]2 | [B,,G,]2 [D,A,]2 [G,,B,]2 (A,G,) | %8
 [D,F,]6 [D,F,]2 | [B,,F,]2 [A,,A,]2 [D,A,]2 [F,A,]2 | [D,A,]2 [B,,B,]2 [A,,C]2 [D,D]2 | %11
 [G,D]2 [E,E]2 [F,D]2 [B,D]2 | [G,B,]4 A,4 | [D,A,]6 |] %14
V:4
 x2 | x8 | x8 | x8 | x8 | x8 | x8 | x6 A,,2 | x8 | x8 | x8 | x8 | x4 A,4 | x6 |] %14

